X:1
T:Shanghai, 85.85 D
T:Shanghai, 85.85 D
T:John Robson Sweney, 1880
T:Public Domain Courtesy of the Cyber Hymnal™
C:John Robson Sweney, 1880
Z:Public Domain
Z:Courtesy of the Cyber Hymnal™
%%score ( 1 2 ) ( 3 4 )
L:1/8
Q:1/4=108
M:4/4
K:Eb
V:1 treble 
V:2 treble 
V:3 bass 
V:4 bass 
V:1
 [EG]2 [EG]2 [EG]2 [FA]2 | ([GB]>[Ac]) ([GB]>[FA]) [GB]2 [EG]2 | [DF]2 [FA]2 [EG]2 [DF]2 | %3
 [EG]6 z2 | [Ec]2 [Ec]2 [Ec]2 [Ad]2 | (e>d) ([Ge]>[Ac]) [GB]2 [EG]2 | [DF]2 [Fd]2 [Fd]2 [Fc]2 | %7
 B8 | [GB]4- [GB]>[FA] [EG]>[FA] | [GB]2 [Ge]2 [Ae]2 [Ac]2 | [GB]3 [EG] [DF]2 [DA]2 | [EG]6 z2 | %12
 ([Ec-]4 [Ac]>)[A=B] [Ac]>[AB] | [Ac]2 [Af]2 [=Af]2 [Fe]2 | [Fd]4- [Fd]>[AB] [Ac]>[Ad] | %15
 [Ge]6 z2 |] %16
V:2
 x8 | x8 | x8 | x8 | x8 | G2 x6 | x8 | D6 A2 | x8 | x8 | x8 | x8 | x8 | x8 | x8 | x8 |] %16
V:3
 [E,B,]2 [E,B,]2 [E,B,]2 [E,B,]2 | [E,E]2 [E,E]2 [E,E]2 [E,B,]2 | %2
 [B,,B,]2 [B,,B,]2 [B,,B,]2 [B,,B,]2 | [E,B,]6 z2 | A,2 A,2 A,2 [F,B,]2 | %5
 [E,B,]2 (B,>E) [E,E]2 [E,B,]2 | [F,B,]2 [F,B,]2 [F,B,]2 [F,=A,]2 | [B,,B,]8 | %8
 [E,B,]2 [E,E]2 [E,E]>[E,B,] [E,B,]>[E,B,] | [E,E]2 [E,B,]2 [E,C]2 [E,E]2 | %10
 [E,E]3 [G,B,] B,2 [B,,B,]2 | [E,B,]6 z2 | A,2 ([A,C]2 [A,E]>)[A,D] [A,E]>[A,D] | %13
 [A,E]2 [A,C]2 [F,C]2 [=A,C]2 | B,2 B,2 B,>[B,,B,] [B,,B,]>[B,,B,] | [E,B,]6 z2 |] %16
V:4
 x8 | x8 | x8 | x8 | A,2 A,2 A,2 x2 | x2 E,2 x4 | x8 | x8 | x8 | x8 | x4 B,2 x2 | x8 | A,2 x6 | %13
 x8 | B,2 B,2 B,3/2 x5/2 | x8 |] %16

